Origami/64x64/apps/tellico.svg

<svg width="64" height="64" version="1.1" viewBox="0 0 64 64" xmlns="http://www.w3.org/2000/svg">
 <path d="m4 56.2v2c0 1.55 1.2496 2.8 2.8008 2.8h36.4c1.55 0 2.8-1.25 2.8-2.8v-2c0 1.55-1.25 2.8-2.8 2.8h-36.4c-1.5504 0-2.8-1.25-2.8-2.8z" style="opacity:.2"/>
 <rect transform="matrix(0,-1,-1,0,0,0)" x="-60" y="-46" width="14" height="42" rx="2.8" ry="2.8" style="fill:#42cf57"/>
 <path d="m18 42.2v2c0 1.55 1.2496 2.8 2.8 2.8h36.398c1.552 0 2.802-1.25 2.802-2.8v-2c0 1.55-1.25 2.8-2.8 2.8h-36.4c-1.5504 0-2.8-1.25-2.8-2.8z" style="opacity:.2"/>
 <rect transform="matrix(0,-1,-1,0,0,0)" x="-46" y="-60" width="14" height="42" rx="2.8" ry="2.8" style="fill:#2ea0e3"/>
 <path d="m4 28.2v2c0 1.55 1.2496 2.8 2.8008 2.8h36.4c1.55 0 2.8-1.25 2.8-2.8v-2c0 1.55-1.25 2.8-2.8 2.8h-36.4c-1.5504 0-2.8-1.25-2.8-2.8z" style="opacity:.2"/>
 <rect transform="matrix(0,-1,-1,0,0,0)" x="-32" y="-46" width="14" height="42" rx="2.8" ry="2.8" style="fill:#e65957"/>
 <path d="m18 14.1992v2c0 1.5512 1.2496 2.8008 2.8 2.8008h36.398c1.552 0 2.802-1.2496 2.802-2.8008v-2c0 1.5512-1.25 2.8008-2.8 2.8008h-36.4c-1.5504 0-2.8-1.2496-2.8-2.8008z" style="opacity:.2"/>
 <rect transform="matrix(0,-1,-1,0,0,0)" x="-18" y="-60" width="14" height="42" rx="2.8" ry="2.8" style="fill:#ffe766"/>
 <path d="m20.800781 4c-1.5504 0-2.800781 1.2495812-2.800781 2.8007812v1c0-1.5512 1.250381-2.8007812 2.800781-2.8007812h36.398438c1.55 0 2.800781 1.2495812 2.800781 2.8007812v-1c0-1.5512-1.250781-2.8007812-2.800781-2.8007812h-36.398438z" style="fill:#ffffff;opacity:.2"/>
 <path d="m6.8007812 18c-1.5511999 0-2.8007812 1.250381-2.8007812 2.800781v1c0-1.5504 1.2495813-2.800781 2.8007812-2.800781h36.400391c1.55 0 2.798828 1.250381 2.798828 2.800781v-1c0-1.5504-1.248828-2.800781-2.798828-2.800781h-36.400391z" style="fill:#ffffff;opacity:.2"/>
 <path d="m20.800781 32c-1.5504 0-2.800781 1.250781-2.800781 2.800781v1c0-1.55 1.250381-2.800781 2.800781-2.800781h0.001953 36.396485c1.55 0 2.800781 1.250781 2.800781 2.800781v-1c0-1.55-1.250781-2.800781-2.800781-2.800781h-36.396485-0.001953z" style="fill:#ffffff;opacity:.2"/>
 <path d="m6.8007812 46c-1.5511999 0-2.8007812 1.250781-2.8007812 2.800781v1c0-1.55 1.2495813-2.800781 2.8007812-2.800781h36.400391c1.55 0 2.798828 1.250781 2.798828 2.800781v-1c0-1.55-1.248828-2.800781-2.798828-2.800781h-36.400391z" style="fill:#ffffff;opacity:.2"/>
</svg>

<svg xmlns="http://www.w3.org/2000/svg" width="64" height="64" version="1.1" viewBox="0 0 64 64">
 <path style="opacity:0.2" d="m 4,56.2 0,2 C 4,59.75 5.2496,61 6.8008,61 l 36.4,0 c 1.55,0 2.8,-1.25 2.8,-2.8 l 0,-2 c 0,1.55 -1.25,2.8 -2.8,2.8 l -36.4,0 c -1.5504,0 -2.8,-1.25 -2.8,-2.8 z"/>
 <rect style="fill:#42cf57" width="14" height="42" x="-60" y="-46" rx="2.8" ry="2.8" transform="matrix(0,-1,-1,0,0,0)"/>
 <path style="opacity:0.2" d="m 18,42.2 0,2 c 0,1.55 1.2496,2.8 2.8,2.8 l 36.398,0 C 58.75,47 60,45.75 60,44.2 l 0,-2 C 60,43.75 58.75,45 57.2,45 L 20.8,45 C 19.2496,45 18,43.75 18,42.2 Z"/>
 <rect style="fill:#2ea0e3" width="14" height="42" x="-46" y="-60" rx="2.8" ry="2.8" transform="matrix(0,-1,-1,0,0,0)"/>
 <path style="opacity:0.2" d="m 4,28.2 0,2 C 4,31.75 5.2496,33 6.8008,33 l 36.4,0 c 1.55,0 2.8,-1.25 2.8,-2.8 l 0,-2 c 0,1.55 -1.25,2.8 -2.8,2.8 l -36.4,0 c -1.5504,0 -2.8,-1.25 -2.8,-2.8 z"/>
 <rect style="fill:#e65957" width="14" height="42" x="-32" y="-46" rx="2.8" ry="2.8" transform="matrix(0,-1,-1,0,0,0)"/>
 <path style="opacity:0.2" d="m 18,14.1992 0,2 C 18,17.7504 19.2496,19 20.8,19 l 36.398,0 C 58.75,19 60,17.7504 60,16.1992 l 0,-2 C 60,15.7504 58.75,17 57.2,17 L 20.8,17 C 19.2496,17 18,15.7504 18,14.1992 Z"/>
 <rect style="fill:#ffe766" width="14" height="42" x="-18" y="-60" rx="2.8" ry="2.8" transform="matrix(0,-1,-1,0,0,0)"/>
 <path style="opacity:0.2;fill:#ffffff" d="M 20.800781 4 C 19.250381 4 18 5.2495812 18 6.8007812 L 18 7.8007812 C 18 6.2495812 19.250381 5 20.800781 5 L 57.199219 5 C 58.749219 5 60 6.2495812 60 7.8007812 L 60 6.8007812 C 60 5.2495812 58.749219 4 57.199219 4 L 20.800781 4 z"/>
 <path style="opacity:0.2;fill:#ffffff" d="M 6.8007812 18 C 5.2495813 18 4 19.250381 4 20.800781 L 4 21.800781 C 4 20.250381 5.2495813 19 6.8007812 19 L 43.201172 19 C 44.751172 19 46 20.250381 46 21.800781 L 46 20.800781 C 46 19.250381 44.751172 18 43.201172 18 L 6.8007812 18 z"/>
 <path style="opacity:0.2;fill:#ffffff" d="M 20.800781 32 C 19.250381 32 18 33.250781 18 34.800781 L 18 35.800781 C 18 34.250781 19.250381 33 20.800781 33 L 20.802734 33 L 57.199219 33 C 58.749219 33 60 34.250781 60 35.800781 L 60 34.800781 C 60 33.250781 58.749219 32 57.199219 32 L 20.802734 32 L 20.800781 32 z"/>
 <path style="opacity:0.2;fill:#ffffff" d="M 6.8007812 46 C 5.2495813 46 4 47.250781 4 48.800781 L 4 49.800781 C 4 48.250781 5.2495813 47 6.8007812 47 L 43.201172 47 C 44.751172 47 46 48.250781 46 49.800781 L 46 48.800781 C 46 47.250781 44.751172 46 43.201172 46 L 6.8007812 46 z"/>
</svg>
